assets/images/img_nav_onprimary.svg

<svg width="24" height="24" viewBox="0 0 24 24" fill="none" xmlns="http://www.w3.org/2000/svg">
<path fill-rule="evenodd" clip-rule="evenodd" d="M8 9C8 5.13401 11.134 2 15 2C18.866 2 22 5.13401 22 9C22 12.866 18.866 16 15 16H13V18H11V20H9V22H2V16.5858L8.14801 10.4378C8.04995 9.96847 8 9.48731 8 9ZM11 16V14H15C17.7614 14 20 11.7614 20 9C20 6.23858 17.7614 4 15 4C12.2386 4 10 6.23858 10 9C10 9.49863 10.0727 9.98638 10.2141 10.4529L10.3879 11.0263L4 17.4142V20H7V18H9V16H11ZM13 9C13 10.1046 13.8954 11 15 11C16.1046 11 17 10.1046 17 9C17 7.89543 16.1046 7 15 7C13.8954 7 13 7.89543 13 9Z" fill="#222222"/>
</svg>

<svg xmlns="http://www.w3.org/2000/svg" width="24" height="24" fill="none" viewBox="0 0 24 24"><path fill="#222" fill-rule="evenodd" d="M8 9a7 7 0 1 1 7 7h-2v2h-2v2H9v2H2v-5.414l6.148-6.148A7.025 7.025 0 0 1 8 9Zm3 7v-2h4a5 5 0 1 0-4.786-3.547l.174.573L4 17.414V20h3v-2h2v-2h2Zm2-7a2 2 0 1 0 4 0 2 2 0 0 0-4 0Z" clip-rule="evenodd"/></svg>
